X:351
L:1/8
M:4/4
K:Eb
 E/F/G/A/ | B>c B<e B<G G>=F | E>FG>F E<B, B,2 | C>EB,>E A,>E G,2 | C>F F>_E D/E/F/D/ B>G | 
 B>c B<e B<G G>=F | E>FG>F E<B, B2 | C>AB,>G A,>F G,>c | B>cB>D (E2 E) || f | g>e e>g f<d d>f | 
 e<c c>^a b_d | c<A A>c B<G GB | c<F F>_E D/E/F/D/ B,>F | G<E E>G F<D D>F | E<C C>=A _B<B, B,>E | 
 C>AB,>G A,>F G,>c | B>cB>D (E2 E) |]

